Origami/16x16/apps/firefox-aurora.svg

<svg width="16" height="16" version="1" xmlns="http://www.w3.org/2000/svg">
 <rect transform="matrix(0,-1,-1,0,0,0)" x="-15.99" y="-16" width="15.994" height="15.997" rx="7.997" ry="7.999" style="fill:#4882e3"/>
 <path d="m6.9749023 0.0723366c-1.0403685 0.13184121-2.0149575 0.46346875-2.8892699 0.9527851l0.5678478 0.1421353 0.3671126 0.256934v0.2202352l0.6247997 0.4044787-0.1467722 0.5880795-0.3302911-0.2569768-0.2210153 0.2569768-0.2571192 0.146752-0.1468794-0.4412202 0.0731719-0.2568697-0.0731719-0.1836008-0.3678947-0.3311027h-0.1468472l0.1468472 0.3678336v0.3303528c-0.1446295-0.0402765-0.2933301-0.0545232-0.4412808-0.073376l0.4045985 0.2944253 0.036712 0.1835258 0.4780167 0.404543 0.4772454-0.1101176v-0.2944254l0.2210478 0.1468164-0.1101327 0.2577159h0.3671127l0.184333 0.3303528 0.2202654 0.2577159 0.441313 0.073409-0.257762 0.2569339-0.073425 0.257716h0.3311806l0.4038164 0.2202355v0.6614876h-0.1835617l-0.1836259 0.1834937-0.4045343-0.1834937-0.1468793-0.4045858-0.2945086-0.1834937-0.0366395-0.1468591-0.4772775-0.1100105-0.257762 0.2936112-0.2936516 0.1467521 0.1835189 0.3312098-0.2570121-0.0734832-0.1476293-0.3311026 0.3312553-0.3669873h-0.1468472l-0.2945087 0.2568696-0.0734932 0.3678443-0.2570121 0.3302457-0.0733861-0.4769978-0.1476292-0.074233c-0.1556643 0.1648551-0.2726535 0.365809-0.4037843 0.5513379l-0.5147312 0.0367073-0.257762 0.1843078 0.1109148 0.1835258 0.2936837 0.2569339h0.4045984l0.5514457-0.1835258 0.25698 0.036707 0.2202654 0.2202352 0.5881602-0.5880794 0.4045985-0.1101176 0.5881601 0.073409 0.5514457 0.1475983c0.3002938 0.3472775 0.5975879 0.70441 0.8818118 1.0651844l0.3311481 0.8458066-0.1476293 0.1467521 0.2945086 0.4413274-0.3312552 0.771466c-0.2676183 0.3089291-0.5411288 0.6092888-0.8083185 0.9184323l-0.4046414-0.3303529-0.1468793 0.1836008-0.4412808-0.2569768-0.1468794 0.1468592h-0.4038164l-0.257762 0.2936434 0.1468472 0.5146609-0.2936837 0.331124 0.036712 0.588079-0.25698 0.440471 0.1835617 0.367833c0.015671 0.267475 0.036712 0.540766 0.036712 0.808293-0.1290202 0.362425-0.2827668 0.700961-0.4045984 1.066031l-0.073419 0.58808v0.293643h-0.2202651l-0.3678947-0.220235h-0.3506999c1.3098081 0.936021 2.9116607 1.492372 4.6513935 1.492372 1.3063798 0 2.5341237-0.316835 3.6210957-0.867648l0.01797-0.03671-0.257762-0.256945-0.07343-0.257716-0.403817-0.110117-0.294465-0.808294 0.07343-0.183525-0.183202-0.332066-0.478241-0.110332-0.2202659-0.550588 0.0367466-0.734832-0.3678947-0.515239-0.0367466-0.514167c0.5015967-0.253871 0.9731966-0.510955 1.4702936-0.7717877l0.25698-0.5146606 0.441313-0.1101176 0.256979-0.6614877 0.588161 0.073409 0.551445-0.403761 0.551446 0.5138786v0.073409c0.166431-0.04904 0.366545-0.053913 0.514731-0.1468163l0.110133-0.3670511v-0.3678335l0.367113 0.036707c-0.028926-0.2469074-0.078207-0.5244509-0.108205-0.7714657h0.221048l0.220265 0.2936434 0.220266 0.1101176 0.294465-0.1835258 0.03672-0.3670516-0.03672-0.4412417-0.478027-0.331124h-0.367113l-0.0742-0.2202353-0.440317 0.1101176-0.331041 0.4045859-0.073921-0.6981971-0.58816-0.4779619-0.183198-0.5513379-0.441388-0.1834936-0.257119-0.3312098-0.551735-0.1100105-0.257119-0.4413274h0.809207l-0.514731-0.2202352h-0.367894l-0.476742-0.1834937-0.07499 0.4772121-0.219623-0.3303529 0.257119-0.1836007-0.07342-0.1843078 0.184344-0.1835258 0.220265-0.036706-0.07342-0.2202352 0.183562-0.3311241 0.367894 0.1468163-0.07343-0.2936434 0.440531-0.2577159 0.33118 0.6247568-0.03671 0.1843077 0.330398 0.1468164 0.221048 0.4779511 0.07343-0.4412417 0.58816-0.2202352 0.110132-0.3311241-0.771721-0.4412417-0.331181-0.3303528-0.03671-0.404543 0.01953-0.011715c-0.083988-0.0557515-0.174259-0.1052209-0.261668-0.1585133l0.13278 0.3186341h-0.367894l-0.110133-0.2944254-0.330398 0.256934h-0.294466v-0.2936434l0.33118-0.1475983 0.293695 0.1843077-0.03671-0.073409c-0.146777-0.1066901-0.289264-0.22848356-0.43925-0.33121001l-0.368538 0.11097456c-0.228193 0.15832085-0.432817 0.31899825-0.66101 0.47710495l-0.3681094-0.3303529 0.4045344-0.14675205 0.146772-0.36784424 0.287116-0.03202837c-0.155342-0.05720117-0.309614-0.11534499-0.468171-0.1631626l-0.7373319 0.52636862v0.33035284l0.2935444 0.3311027-0.4037842 0.8083147-0.2945086-0.1468592-0.3303982-0.5513379c-0.4935618-0.1556429-0.9683752-0.3361373-1.4345109-0.551445l0.0367466 0.2202352-0.2203726 0.147609-0.4045342-0.2943611 0.1843759-0.22023521 0.2936516 0.14675211 0.0367466-0.0367416-0.3611453-0.98474926zm-3.6774473 1.4620577c-0.12481 0.0907292-0.2516555 0.1787804-0.3710016 0.2763652l0.1460651 0.1647801 0.4045985-0.4412417h-0.1796513zm3.0462197 0.404543h0.2210475v0.2202352l-0.1468472 0.1835258v0.3311241l0.0736 0.4779618-0.3678944-0.073376-0.2937586-0.2577267 0.257012-0.2569768c0.080564-0.2189498 0.1560928-0.4146549 0.2570121-0.6247139zm0.5515207 0.4778547 0.2210153 0.0734831-0.0367466 0.4404705-0.3311481-0.1836008zm-5.7336511 3.7483907-0.3312552 0.3673086-0.36710194-0.0365273c-0.12921311 0.1196511-0.257687 0.2223776-0.37805093 0.3420287-0.05505779 0.3802271-0.085136452 0.7692272-0.085136452 1.1652329 0 2.6258984 1.259027 4.9406174 3.2024196 6.3966764l-0.4975256-0.590222 0.074136-0.257084-0.4412808-0.368487 0.3303981-0.330995-0.3670376-0.293504-0.3678947-0.220664-0.1468794-0.184244 0.1101327-0.403761v-1.029299l-0.2936515-0.624286-0.3311481-0.3679512-0.40464135-0.9550667v-0.2577159c0.18919685 0.0243169 0.36631985 0.0607842 0.55144565 0.0741912l-0.3670376-0.4045859-0.51477408-0.3678442-0.29446577-0.3303528v-0.3311241c0.06307991-0.1216864 0.12088888-0.2827923 0.18436518-0.403836l0.25697993 0.3303528 0.18351883-0.2569768 0.29450861-0.220985v-0.4404705zm1.4332253 0.1836007-0.3303982 0.4037289-0.4412808 0.9191821-0.2570121 0.2936113 0.1468794 0.3311027-0.2570121 0.2936112c0.1073901 0.00706 0.2200405 0 0.3303982 0 0.200553-0.4296515 0.3621095-0.8733355 0.5147741-1.322911l0.257012-0.2936112 0.1476293-0.5514451-0.1109898-0.073376zm13.39591 1.4445974c-0.01466 0.025619-0.05312 0.099183-0.05312 0.099183l-0.624839 0.3678335-0.661579 0.1835258-0.257762 0.3678335-0.44053 0.3303529-0.221048-0.0734093-0.183562 0.1101176v0.036707l0.220266 0.698165 0.184333 0.2577162-0.03672 0.146816 0.146848 0.55136-0.551446 0.992633-0.551446 0.513878-0.25698 0.331125 0.03672 0.771562-0.184344 0.404543 0.135127 0.59351c2.002316-1.450703 3.305589-3.8012 3.305589-6.4731589 0-0.070405-0.0036-0.1401215-0.0055-0.2100804z" style="opacity:.2"/>
</svg>

<svg xmlns="http://www.w3.org/2000/svg" width="16" height="16" version="1">
 <rect style="fill:#4882e3" width="15.994" height="15.997" x="-15.99" y="-16" rx="7.997" ry="7.999" transform="matrix(0,-1,-1,0,0,0)"/>
 <path style="opacity:0.2" d="M 6.9749023,0.0723366 C 5.9345338,0.20417781 4.9599448,0.53580535 4.0856324,1.0251217 L 4.6534802,1.167257 5.0205928,1.424191 V 1.6444262 L 5.6453925,2.0489049 5.4986203,2.6369844 5.1683292,2.3800076 4.9473139,2.6369844 4.6901947,2.7837364 4.5433153,2.3425162 4.6164872,2.0856465 4.5433153,1.9020457 4.1754206,1.570943 H 4.0285734 L 4.1754206,1.9387766 V 2.2691294 C 4.0307911,2.2288529 3.8820905,2.2146062 3.7341398,2.1957534 L 4.1387383,2.4901787 4.1754503,2.6737045 4.653467,3.0782475 5.1307124,2.9681299 V 2.6737045 L 5.3517602,2.8205209 5.2416275,3.0782368 h 0.3671127 l 0.184333,0.3303528 0.2202654,0.2577159 0.441313,0.073409 -0.257762,0.2569339 -0.073425,0.257716 H 6.4546452 L 6.8584616,4.4745999 V 5.1360875 H 6.6748999 L 6.491274,5.3195812 6.0867397,5.1360875 5.9398604,4.7315017 5.6453518,4.548008 5.6087123,4.4011489 5.1314348,4.2911384 4.8736728,4.5847496 4.5800212,4.7315017 4.7635401,5.0627115 4.506528,4.9892283 4.3588987,4.6581257 4.690154,4.2911384 H 4.5433068 L 4.2487981,4.548008 4.1753049,4.9158523 3.9182928,5.246098 3.8449067,4.7691002 3.6972775,4.6948672 C 3.5416132,4.8597223 3.424624,5.0606762 3.2934932,5.2462051 L 2.778762,5.2829124 2.521,5.4672202 2.6319148,5.650746 2.9255985,5.9076799 h 0.4045984 l 0.5514457,-0.1835258 0.25698,0.036707 0.2202654,0.2202352 0.5881602,-0.5880794 0.4045985,-0.1101176 0.5881601,0.073409 0.5514457,0.1475983 c 0.3002938,0.3472775 0.5975879,0.70441 0.8818118,1.0651844 L 7.7042124,7.4148976 7.5565831,7.5616497 7.8510917,8.0029771 7.5198365,8.7744431 C 7.2522182,9.0833722 6.9787077,9.3837319 6.711518,9.6928754 L 6.3068766,9.3625225 6.1599973,9.5461233 5.7187165,9.2891465 5.5718371,9.4360057 H 5.1680207 l -0.257762,0.2936434 0.1468472,0.5146609 -0.2936837,0.331124 0.036712,0.588079 -0.25698,0.440471 0.1835617,0.367833 c 0.015671,0.267475 0.036712,0.540766 0.036712,0.808293 -0.1290202,0.362425 -0.2827668,0.700961 -0.4045984,1.066031 l -0.073419,0.58808 v 0.293643 H 4.0651454 L 3.6972507,14.507629 H 3.3465508 c 1.3098081,0.936021 2.9116607,1.492372 4.6513935,1.492372 1.3063798,0 2.5341237,-0.316835 3.6210957,-0.867648 l 0.01797,-0.03671 -0.257762,-0.256945 -0.07343,-0.257716 -0.403817,-0.110117 -0.294465,-0.808294 0.07343,-0.183525 L 10.497764,13.14698 10.019523,13.036648 9.7992571,12.48606 9.8360037,11.751228 9.468109,11.235989 9.4313624,10.721822 C 9.9329591,10.467951 10.404559,10.210867 10.901656,9.9500343 l 0.25698,-0.5146606 0.441313,-0.1101176 0.256979,-0.6614877 0.588161,0.073409 0.551445,-0.403761 0.551446,0.5138786 v 0.073409 c 0.166431,-0.04904 0.366545,-0.053913 0.514731,-0.1468163 L 14.172844,8.4068366 V 8.0390031 l 0.367113,0.036707 C 14.511031,7.8288027 14.46175,7.5512592 14.431752,7.3042444 H 14.6528 l 0.220265,0.2936434 0.220266,0.1101176 0.294465,-0.1835258 0.03672,-0.3670516 -0.03672,-0.4412417 -0.478027,-0.331124 H 14.542656 L 14.468456,6.164827 14.028139,6.2749446 13.697098,6.6795305 13.623177,5.9813334 13.035017,5.5033715 12.851819,4.9520336 12.410431,4.76854 12.153312,4.4373302 11.601577,4.3273197 11.344458,3.8859923 h 0.809207 L 11.638934,3.6657571 H 11.27104 L 10.794298,3.4822634 10.719308,3.9594755 10.499685,3.6291226 10.756804,3.4455219 10.683384,3.2612141 10.867728,3.0776883 11.087993,3.0409823 11.014573,2.8207471 11.198135,2.489623 11.566029,2.6364393 11.492599,2.3427959 11.93313,2.08508 l 0.33118,0.6247568 -0.03671,0.1843077 0.330398,0.1468164 0.221048,0.4779511 0.07343,-0.4412417 0.58816,-0.2202352 0.110132,-0.3311241 -0.771721,-0.4412417 -0.331181,-0.3303528 -0.03671,-0.404543 0.01953,-0.011715 C 12.346698,1.282707 12.256427,1.2332376 12.169018,1.1799452 l 0.13278,0.3186341 H 11.933904 L 11.823771,1.2041539 11.493373,1.4610879 H 11.198907 V 1.1674445 l 0.33118,-0.1475983 0.293695,0.1843077 -0.03671,-0.073409 C 11.640295,1.0240548 11.497808,0.90226134 11.347822,0.79953489 L 10.979284,0.91050945 C 10.751091,1.0688303 10.546467,1.2295077 10.318274,1.3876144 L 9.9501646,1.0572615 10.354699,0.91050945 10.501471,0.54266521 10.788587,0.51063684 C 10.633245,0.45343567 10.478973,0.39529185 10.320416,0.34747424 L 9.5830841,0.87384286 V 1.2041957 L 9.8766285,1.5352984 9.4728443,2.3436131 9.1783357,2.1967539 8.8479375,1.645416 C 8.3543757,1.4897731 7.8795623,1.3092787 7.4134266,1.093971 L 7.4501732,1.3142062 7.2298006,1.4618152 6.8252664,1.1674541 7.0096423,0.94721889 7.3032939,1.093971 7.3400405,1.0572294 6.9788952,0.07248014 Z M 3.297455,1.5343943 C 3.172645,1.6251235 3.0457995,1.7131747 2.9264534,1.8107595 L 3.0725185,1.9755396 3.477117,1.5342979 H 3.2974657 Z m 3.0462197,0.404543 H 6.5647222 V 2.1591725 L 6.417875,2.3426983 V 2.6738224 L 6.491475,3.1517842 6.1235806,3.0784082 5.829822,2.8206815 6.086834,2.5637047 C 6.167398,2.3447549 6.2429268,2.1490498 6.3438461,1.9389908 Z M 6.8951954,2.416792 7.1162107,2.4902751 7.0794641,2.9307456 6.748316,2.7471448 Z M 1.1615443,6.1651827 0.8302891,6.5324913 0.46318716,6.495964 C 0.33397405,6.6156151 0.20550016,6.7183416 0.08513623,6.8379927 0.03007844,7.2182198 -2.2164e-7,7.6072199 -2.2164e-7,8.0032256 -2.2164e-7,10.629124 1.2590268,12.943843 3.2024194,14.399902 L 2.7048938,13.80968 2.7790298,13.552596 2.337749,13.184109 2.6681471,12.853114 2.3011095,12.55961 1.9332148,12.338946 1.7863354,12.154702 1.8964681,11.750941 V 10.721642 L 1.6028166,10.097356 1.2716685,9.7294048 0.86702715,8.7743381 V 8.5166222 C 1.056224,8.5409391 1.233347,8.5774064 1.4184728,8.5908134 L 1.0514352,8.1862275 0.53666112,7.8183833 0.24219535,7.4880305 V 7.1569064 C 0.30527526,7.03522 0.36308423,6.8741141 0.42656053,6.7530704 L 0.68354046,7.0834232 0.86705929,6.8264464 1.1615679,6.6054614 V 6.1649909 Z M 2.5947696,6.3487834 2.2643714,6.7525123 1.8230906,7.6716944 1.5660785,7.9653057 1.7129579,8.2964084 1.4559458,8.5900196 c 0.1073901,0.00706 0.2200405,0 0.3303982,0 C 1.986897,8.1603681 2.1484535,7.7166841 2.3011181,7.2671086 L 2.5581301,6.9734974 2.7057594,6.4220523 2.5947696,6.3486763 Z M 15.99068,7.7933808 c -0.01466,0.025619 -0.05312,0.099183 -0.05312,0.099183 L 15.312721,8.2603973 14.651142,8.4439231 14.39338,8.8117566 13.95285,9.1421095 13.731802,9.0687002 13.54824,9.1788178 v 0.036707 l 0.220266,0.698165 0.184333,0.2577162 -0.03672,0.146816 0.146848,0.55136 -0.551446,0.992633 -0.551446,0.513878 -0.25698,0.331125 0.03672,0.771562 -0.184344,0.404543 0.135127,0.59351 c 2.002316,-1.450703 3.305589,-3.8012 3.305589,-6.4731589 0,-0.070405 -0.0036,-0.1401215 -0.0055,-0.2100804 z"/>
</svg>
